ladingpage-exp-fem-2/img/card/2.svg

<svg width="70" height="70" viewBox="0 0 70 70" fill="none" xmlns="http://www.w3.org/2000/svg">
<path fill-rule="evenodd" clip-rule="evenodd" d="M31.0174 0.666377C23.3177 2.86029 16.0728 8.23973 11.9826 14.8001C7.51977 21.9583 5.33048 33.3098 5.84935 46.6012C5.98246 50.0057 5.88715 52.3807 5.57738 53.3817C4.98333 55.302 2.9978 57.3362 1.29328 57.7706L0 58.1002L1.34833 58.1327C2.08988 58.1504 3.29154 57.9451 4.01871 57.6766C5.51864 57.1223 8.01112 55.0155 8.01112 54.3021C8.01112 53.2628 8.69515 53.9946 10.0365 56.4689C11.1149 58.4583 12.2726 59.79 14.9664 62.1404C18.9198 65.5893 22.775 67.6943 27.873 69.1875C33.0223 70.6959 34.5604 69.9873 30.4012 68.0228L27.9362 66.8585L30.2114 66.8484C34.5226 66.8292 37.6309 64.5352 37.5631 61.4234C37.5364 60.2034 37.5134 60.2236 36.9937 61.9271C36.23 64.4286 35.1417 65.0906 32.0445 64.9388C28.7854 64.7788 25.4495 63.3987 22.6062 61.0331C19.7957 58.695 18.1758 56.492 16.7494 53.0691C15.6936 50.5348 15.6365 50.0668 15.65 44.0716C15.6636 38.1334 15.7351 37.5599 16.816 34.6758C18.7292 29.5717 22.1255 24.3755 25.0822 22.0277C26.454 20.9385 26.0682 21.5908 23.9163 23.9986C20.0381 28.3373 17.737 34.0904 17.6939 39.5544C17.6672 42.9394 18.3496 46.3721 19.1334 46.7981C19.3138 46.8961 19.2883 46.4458 19.0772 45.7975C18.8656 45.1488 18.6926 43.2115 18.6926 41.4921C18.6926 37.6561 19.6909 34.5815 21.9229 31.5441C25.3061 26.9398 28.93 24.6838 36.6018 22.406C45.1495 19.8684 47.8194 18.4045 49.5133 15.3263C50.0009 14.4406 50.5526 13.716 50.7396 13.716C50.9269 13.716 51.3957 14.4435 51.7818 15.3328C52.8989 17.9051 52.4675 20.4806 50.498 23.003C48.9997 24.9219 48.8884 25.2406 48.8884 27.6116V30.1586L47.5532 30.2717C46.4711 30.3635 46.218 30.5427 46.218 31.2164V32.0479L48.1694 31.1643C49.8571 30.4 50.5374 30.3006 53.2021 30.4307C55.2455 30.5305 56.8367 30.8337 57.9266 31.332C64.3429 34.2642 64.9069 40.3906 59.3312 46.5951L57.7516 48.3528L58.0034 51.9853C58.2487 55.5301 58.224 55.6721 56.9767 57.8852C56.2734 59.1323 54.6745 61.1795 53.4231 62.4345C50.1923 65.6746 50.3341 66.2467 53.8516 64.163C56.554 62.5621 61.7727 58.0026 64.1498 55.1654C68.3772 50.1206 70.2 45.6558 69.9827 40.8781C69.7839 36.5 68.5629 34.4019 63.7459 30.1586C58.8928 25.8835 58.187 24.5421 57.7056 18.6824C57.1324 11.7075 56.7787 11.0003 51.7276 6.7346C46.7628 2.54192 45.2891 1.59547 42.2757 0.663848C39.4094 -0.222245 34.1323 -0.221161 31.0174 0.666377ZM31.2019 33.3994C30.3856 35.1185 30.4554 36.8231 31.4377 39.1323C32.0905 40.6674 33.0637 41.7739 35.9773 44.2953C40.4578 48.1725 42.2728 50.5113 42.2975 52.4399C42.3074 53.2024 42.454 53.8269 42.6233 53.8276C42.7925 53.8283 42.9314 53.6936 42.9314 53.528C42.9314 53.3625 43.9716 52.5494 45.2427 51.7212L47.5536 50.215H46.1198C44.3356 50.215 42.5206 49.0278 42.5206 47.861C42.5206 47.3904 42.323 46.8979 42.0818 46.7667C41.8402 46.6355 41.7334 46.3204 41.8443 46.0667C41.9549 45.8127 41.8382 45.4228 41.5847 45.1998C41.2441 44.9002 41.2445 44.6881 41.5872 44.3867C41.9314 44.0839 41.9261 43.798 41.5666 43.2773C41.1513 42.6752 41.2573 42.4519 42.3152 41.702C43.4975 40.864 43.5476 40.7119 43.5476 37.9636C43.5476 35.5279 43.6914 34.9277 44.5081 33.9556C45.0365 33.3268 45.3347 32.7031 45.1708 32.5693C45.0069 32.436 44.8027 32.4895 44.7173 32.6882C44.2111 33.862 43.7703 34.1294 43.0177 33.7196C42.3402 33.3503 42.2059 33.475 41.7827 34.867C41.4684 35.9005 41.0223 36.5083 40.4636 36.6641C39.3104 36.9861 36.313 35.3953 34.6565 33.5819C33.0165 31.7866 31.9935 31.7324 31.2019 33.3994Z" fill="black"/>
</svg>

<svg width="70" height="70" fill="none" xmlns="http://www.w3.org/2000/svg"><path fill-rule="evenodd" clip-rule="evenodd" d="M31.017.666C23.317 2.86 16.073 8.24 11.983 14.8 7.52 21.958 5.33 33.31 5.849 46.601c.133 3.405.038 5.78-.272 6.78-.594 1.921-2.58 3.955-4.284 4.39L0 58.1l1.348.032c.742.017 1.944-.188 2.67-.456 1.5-.555 3.993-2.661 3.993-3.375 0-1.04.684-.307 2.026 2.167 1.078 1.99 2.236 3.321 4.93 5.671 3.953 3.45 7.808 5.554 12.906 7.047 5.15 1.509 6.687.8 2.528-1.164l-2.465-1.164 2.275-.01c4.312-.02 7.42-2.314 7.352-5.426-.027-1.22-.05-1.2-.57.504-.763 2.502-1.851 3.164-4.949 3.012-3.259-.16-6.594-1.54-9.438-3.906-2.81-2.338-4.43-4.541-5.857-7.964-1.055-2.534-1.112-3.002-1.099-8.997.014-5.939.085-6.512 1.166-9.396 1.913-5.104 5.31-10.3 8.266-12.648 1.372-1.09.986-.437-1.166 1.97-3.878 4.34-6.179 10.092-6.222 15.556-.027 3.385.656 6.818 1.44 7.244.18.098.154-.352-.057-1-.211-.65-.384-2.587-.384-4.306 0-3.836.998-6.91 3.23-9.948 3.383-4.604 7.007-6.86 14.679-9.138 8.548-2.538 11.217-4.002 12.911-7.08.488-.885 1.04-1.61 1.227-1.61.187 0 .656.728 1.042 1.617 1.117 2.572.686 5.148-1.284 7.67-1.498 1.919-1.61 2.238-1.61 4.609v2.547l-1.335.113c-1.082.091-1.335.27-1.335.944v.832l1.951-.884c1.688-.764 2.368-.863 5.033-.733 2.044.1 3.635.403 4.725.901 6.416 2.932 6.98 9.059 1.404 15.263l-1.58 1.758.252 3.632c.246 3.545.221 3.687-1.026 5.9-.704 1.247-2.302 3.294-3.554 4.55-3.23 3.24-3.089 3.812.429 1.728 2.702-1.6 7.92-6.16 10.298-8.998 4.227-5.044 6.05-9.51 5.833-14.287-.2-4.378-1.42-6.476-6.237-10.72-4.853-4.274-5.559-5.616-6.04-11.476-.574-6.974-.927-7.682-5.978-11.947-4.965-4.193-6.439-5.14-9.452-6.071-2.867-.886-8.144-.885-11.259.002zm.185 32.733c-.816 1.72-.747 3.424.236 5.733.652 1.535 1.626 2.642 4.54 5.163 4.48 3.877 6.295 6.216 6.32 8.145.01.762.156 1.387.325 1.388.17 0 .308-.134.308-.3 0-.166 1.04-.979 2.312-1.807l2.31-1.506H46.12c-1.784 0-3.6-1.187-3.6-2.354 0-.47-.197-.963-.438-1.094a.558.558 0 01-.238-.7c.11-.254-.006-.644-.26-.867-.34-.3-.34-.512.003-.813.344-.303.34-.589-.02-1.11-.416-.602-.31-.825.748-1.575 1.183-.838 1.233-.99 1.233-3.738 0-2.436.143-3.036.96-4.008.528-.63.827-1.253.663-1.387-.164-.133-.368-.08-.454.12-.506 1.173-.947 1.44-1.7 1.03-.677-.369-.811-.244-1.234 1.148-.315 1.034-.76 1.641-1.32 1.797-1.153.322-4.15-1.269-5.806-3.082-1.64-1.795-2.663-1.85-3.455-.183z" fill="#000"/></svg>
